media/icon-file-type/svgs/generic/16.svg

<svg width="16" height="16" viewBox="0 0 16 16"><path fill="#758195" fill-rule="evenodd" d="M8,3 L5.33333333,3 C4.59666667,3 4,3.61653701 4,4.37773634 L4,11.6222637 C4,12.3827741 4.59666667,13 5.33333333,13 L10.6666667,13 C11.4033333,13 12,12.3827741 12,11.6222637 L12,8 L10.6666667,8 L10.6666667,11.6222637 L5.33333333,11.6222637 L5.33333333,4.37773634 L8,4.37773634 L8,5.7916151 C8,6.52799477 8.59695367,7.12494844 9.33333333,7.12494844 L11.6666667,7.12494844 C11.8507616,7.12494844 12,6.97571002 12,6.7916151 L12,5.88895591 C12,5.80276977 11.9666177,5.71993357 11.9068581,5.65783005 L9.74274266,3.40882988 C9.49138189,3.14760981 9.14449317,3 8.78197674,3 L8.0000001,3 Z M0,1.99406028 C0,0.892771196 0.894513756,0 1.99406028,0 L14.0059397,0 C15.1072288,0 16,0.894513756 16,1.99406028 L16,14.0059397 C16,15.1072288 15.1054862,16 14.0059397,16 L1.99406028,16 C0.892771196,16 0,15.1054862 0,14.0059397 L0,1.99406028 Z"/></svg>

<svg width="16" height="16" viewBox="0 0 16 16"><path fill="#5E6C84" fill-rule="evenodd" d="M8 3H5.333C4.597 3 4 3.617 4 4.378v7.244C4 12.382 4.597 13 5.333 13h5.334c.736 0 1.333-.617 1.333-1.378V8h-1.333v3.622H5.333V4.378H8v1.414c0 .736.597 1.333 1.333 1.333h2.334c.184 0 .333-.15.333-.333v-.903a.333.333 0 00-.093-.231l-2.164-2.25A1.333 1.333 0 008.782 3H8zM0 1.994C0 .893.895 0 1.994 0h12.012C15.107 0 16 .895 16 1.994v12.012A1.995 1.995 0 0114.006 16H1.994A1.995 1.995 0 010 14.006V1.994z"/></svg>
